build/service/ThumbsDownSolid.svg

<svg xmlns="http://www.w3.org/2000/svg" fill="none" viewBox="0 0 24 24" focusable="false"><path d="M0 0H24V24H0z"/><path fill="#74767B" fill-rule="evenodd" d="M19.7039 14.3765C20.4219 14.3765 21.0039 13.7899 21.0039 13.0663L21.0039 5.31023C21.0039 4.58661 20.4219 4 19.7039 4L17.9027 4C17.1848 4 16.6027 4.58661 16.6027 5.31023L16.6027 13.0663C16.6027 13.7899 17.1847 14.3765 17.9027 14.3765L19.7039 14.3765ZM15.2851 13.673C15.2851 13.8882 15.2325 14.1 15.132 14.2899L13.7353 16.9278C13.5229 17.3289 13.4118 17.7766 13.4118 18.2313L13.4118 18.5683C13.4118 19.9113 12.3316 21 10.9991 21C9.66661 21 8.58641 19.9113 8.58641 18.5683L8.58641 17.9155C8.58641 17.6653 8.6177 17.4162 8.67955 17.1738L9.14937 15.3324L7.00148 15.3324C5.04937 15.3324 3.61723 13.4831 4.09129 11.5746L5.40404 6.28936C5.73826 4.94381 6.93799 4.00002 8.31424 4.00002L13.9851 4.00002C14.7031 4.00002 15.2851 4.58663 15.2851 5.31025L15.2851 13.673Z"/></svg>

<svg xmlns="http://www.w3.org/2000/svg" fill="none" viewBox="0 0 24 24" focusable="false"><path fill="#74767B" fill-rule="evenodd" d="M19.7 14.37c.72 0 1.3-.59 1.3-1.31V5.31A1.3 1.3 0 0 0 19.7 4h-1.8c-.72 0-1.3.58-1.3 1.31v7.75c0 .72.58 1.31 1.3 1.31zm-4.42-.7c0 .21-.05.43-.15.61l-1.4 2.64c-.21.4-.32.85-.32 1.31v.33c0 1.35-1.08 2.44-2.42 2.44-1.33 0-2.41-1.09-2.41-2.44v-.65c0-.25.03-.5.09-.74l.47-1.84H7c-1.96 0-3.39-1.85-2.91-3.76L5.4 6.28A2.995 2.995 0 0 1 8.31 4h5.67c.72 0 1.3.58 1.3 1.31z"/></svg>
